X:1
T:El Kader, SM
T:El Kader, SM
T:Composer unknown
T:Public Domain Courtesy of the Cyber Hymnal™
C:Composer unknown
Z:Public Domain
Z:Courtesy of the Cyber Hymnal™
%%score ( 1 2 ) ( 3 4 )
L:1/8
Q:1/4=115
M:4/4
K:C
V:1 treble 
V:2 treble 
V:3 bass 
V:4 bass 
V:1
 [EG]2 | [EG]2 [EG]2 [FA]2 [FB]2 | [Ec]4 [CE]4 | [B,D]2 [CE]2 [DF]2 [B,G]2 | [CE]6 [EG]2 | %5
 [EG]2 [EG]2 [FA]2 [FB]2 | [Ec]2 [Ec]2 [DB]2 [EA]2 | [DG]2 [DG]2 [DB]2 [CA]2 | [B,G]6 G2 | %9
 [Ec]2 [Ec]2 [EG]2 [EG]2 | [CE]2 [EG]2 [Ec]2 G2 | [FA]4 [Fd]4 | [Fd]4 [Ec]2 [DB]2 | [Ec]6 |] %14
V:2
 x2 | x8 | x8 | x8 | x8 | x8 | x8 | x8 | x6 G2 | x8 | x6 G2 | x8 | x8 | x6 |] %14
V:3
 [C,C]2 | [C,C]2 [C,C]2 [C,C]2 [C,G,]2 | [C,G,]4 [C,G,]4 | [G,,G,]2 [G,,G,]2 [G,,G,]2 [G,,G,]2 | %4
 [C,G,]6 [C,C]2 | [C,C]2 [C,C]2 [C,C]2 [C,G,]2 | [C,G,]2 [C,G,]2 G,2 [C,C]2 | %7
 [D,B,]2 [D,B,]2 [D,G,]2 [D,^F,]2 | G,6 G,2 | [C,G,]4 [C,C]4 | [C,G,]6 [E,C]2 | %11
 [F,C]2 [F,A,]2 [D,A,]2 [D,A,]2 | G,2 G,2 [G,,G,]2 [G,,G,]2 | [C,G,]6 |] %14
V:4
 x2 | x8 | x8 | x8 | x8 | x8 | x4 G,2 x2 | x8 | G,6 G,2 | x8 | x8 | x8 | G,2 G,2 x4 | x6 |] %14

